X:246
T: Der Essigkrug (3-49), S. 143
N: P1021
O: Lothringen
S: PINCK, Louis: Verklingende Weisen, Bd3, Metz 1933]
R: Arbeits-, Berufslied]
M: 2/4
L: 1/16
K: G
G2 | d2d2d2c2 | d4_B4
d4c2B2 | A4z2
G2 | d2d2d2c2 | d4_B4
d4c2B2 | A4z2
_BA | G2_B2A2A2 | GG
_B2A2A2 | G2
_B2A2A2 | G2
_B2A2A2 | G4
d4 | c4A4 | G6

